client/public/assets/icons/utility/hide.svg

<?xml version="1.0"?><svg xmlns="http://www.w3.org/2000/svg" width="52" height="52" viewBox="0 0 52 52"><g fill="#fff"><path d="m51.8 25.1c-1.6-3.2-3.7-6.1-6.3-8.4l-8.5 8.4v0.9c0 6.1-4.9 11-11 11h-0.9l-5.4 5.4c2 0.4 4.1 0.7 6.2 0.7 11.3 0 21.1-6.6 25.8-16.1 0.4-0.7 0.4-1.3 0.1-1.9z m-3.3-19.5l-2.1-2.1c-0.6-0.6-1.7-0.5-2.4 0.3l-7.3 7.3c-3.3-1.4-6.9-2.1-10.7-2.1-11.3 0-21.1 6.6-25.8 16.1-0.3 0.6-0.3 1.3 0 1.8 2.2 4.5 5.5 8.2 9.6 11l-6 6.1c-0.7 0.7-0.8 1.8-0.3 2.4l2.1 2.1c0.6 0.6 1.7 0.5 2.4-0.3l40.2-40.2c0.8-0.7 0.9-1.8 0.3-2.4z m-33.5 20.4c0-6.1 4.9-11 11-11 2 0 3.8 0.5 5.4 1.4l-3 3c-0.8-0.2-1.6-0.4-2.4-0.4-3.9 0-7 3.1-7 7 0 0.8 0.2 1.6 0.4 2.4l-3 3c-0.9-1.6-1.4-3.4-1.4-5.4z"></path></g></svg>

<?xml version="1.0" encoding="utf-8"?>
<!-- Generator: Adobe Illustrator 21.1.0, SVG Export Plug-In . SVG Version: 6.00 Build 0)  -->
<svg version="1.1" id="Layer_1" xmlns="http://www.w3.org/2000/svg" xmlns:xlink="http://www.w3.org/1999/xlink" x="0px" y="0px"
	 width="52px" height="52px" viewBox="0 0 52 52" enable-background="new 0 0 52 52" xml:space="preserve">
<g>
	<path fill="#FFFFFF" d="M51.8,25.1c-1.6-3.2-3.7-6.1-6.3-8.4L37,25.1c0,0.3,0,0.6,0,0.9c0,6.1-4.9,11-11,11c-0.3,0-0.6,0-0.9,0
		l-5.4,5.4c2,0.4,4.1,0.7,6.2,0.7c11.3,0,21.1-6.6,25.8-16.1C52.1,26.3,52.1,25.7,51.8,25.1z"/>
	<path fill="#FFFFFF" d="M48.5,5.6l-2.1-2.1C45.8,2.9,44.7,3,44,3.8l-7.3,7.3C33.4,9.7,29.8,9,26,9C14.7,9,4.9,15.6,0.2,25.1
		c-0.3,0.6-0.3,1.3,0,1.8c2.2,4.5,5.5,8.2,9.6,11L3.8,44c-0.7,0.7-0.8,1.8-0.3,2.4l2.1,2.1C6.2,49.1,7.3,49,8,48.2L48.2,8
		C49,7.3,49.1,6.2,48.5,5.6z M15,26c0-6.1,4.9-11,11-11c2,0,3.8,0.5,5.4,1.4l-3,3C27.6,19.2,26.8,19,26,19c-3.9,0-7,3.1-7,7
		c0,0.8,0.2,1.6,0.4,2.4l-3,3C15.5,29.8,15,28,15,26z"/>
</g>
</svg>
